img/header/logo-m.svg

<svg width="136" height="29" viewBox="0 0 136 29" fill="none" xmlns="http://www.w3.org/2000/svg">
<path fill-rule="evenodd" clip-rule="evenodd" d="M36.2511 8.06858C36.281 8.16277 36.3109 8.22556 36.3706 8.25696C36.4005 8.28835 36.4303 8.31975 36.4602 8.31975C36.4901 8.31975 36.5199 8.28835 36.5498 8.25696C36.5797 8.22556 36.6394 8.16277 36.6693 8.06858L39.2679 0.125582H43.121L39.2679 10.0779C39.1783 10.329 39.0588 10.5802 38.9094 10.8C38.7601 11.0197 38.5809 11.2395 38.3718 11.3965C38.1627 11.5849 37.8939 11.7104 37.5952 11.8046C37.2965 11.8988 36.9082 11.9616 36.4602 11.9616C36.0122 11.9616 35.6239 11.8988 35.3252 11.8046C35.0265 11.7104 34.7577 11.5535 34.5486 11.3965C34.3395 11.2395 34.1603 11.0197 34.011 10.8C33.8616 10.5802 33.7421 10.329 33.6525 10.0779L29.7994 0.125582H33.6525L36.2511 8.06858ZM43.4495 11.836V0.125582H47.0338V11.836H43.4495ZM54.7997 5.52557C55.0088 5.52557 55.2477 5.52557 55.4568 5.49417C55.6659 5.46278 55.8451 5.39999 55.9944 5.21162C56.1737 4.99185 56.2931 4.6465 56.2931 4.20697C56.2931 4.04999 56.2633 3.89301 56.2334 3.73604C56.2035 3.57906 56.1139 3.42208 55.9646 3.2965C55.8152 3.17092 55.636 3.07674 55.4568 3.07674C55.2477 3.04534 55.0685 3.04534 54.8594 3.04534H52.8582C52.7089 3.04534 52.5894 3.07674 52.5297 3.10813C52.44 3.17092 52.3803 3.20232 52.3504 3.2965C52.3206 3.35929 52.2907 3.42208 52.2608 3.51627C52.2608 3.57906 52.231 3.67325 52.231 3.73604V5.55696H54.7997V5.52557ZM48.6168 11.836V2.32325C48.6168 2.07209 48.6467 1.82093 48.7064 1.50697C48.7662 1.19302 48.8857 0.941858 49.0649 0.722091C49.1843 0.565115 49.3636 0.439534 49.6025 0.313953C49.8415 0.188372 50.17 0.125582 50.5284 0.125582H56.6814C57.1295 0.125582 57.5476 0.188372 57.9658 0.282558C58.3541 0.376744 58.7125 0.596511 59.0411 0.973254C59.3099 1.25581 59.519 1.66395 59.6385 2.16627C59.7878 2.6686 59.8475 3.3279 59.8475 4.17557C59.8475 4.36394 59.8475 4.6465 59.8177 4.96045C59.7878 5.27441 59.7579 5.61975 59.6982 5.9965C59.6384 6.34185 59.519 6.68719 59.3995 7.03254C59.28 7.37789 59.0709 7.62905 58.8619 7.84882C58.593 8.06858 58.2943 8.25696 57.9061 8.35114C57.5476 8.44533 57.1892 8.50812 56.8905 8.50812H52.2011V11.8988H48.6168V11.836ZM64.4772 8.91626H70.6601C70.9289 8.91626 71.1081 8.88486 71.1678 8.79068C71.2276 8.72789 71.2873 8.6337 71.2873 8.53951C71.2873 8.35114 71.2276 8.22556 71.0782 8.13137C70.9289 8.06858 70.7795 8.00579 70.6003 7.943L66.2992 6.68719C65.9707 6.59301 65.7018 6.46743 65.4928 6.27905C65.2837 6.09068 65.1343 5.93371 65.0148 5.77673C64.746 5.39999 64.5967 4.99185 64.5071 4.52092C64.4473 4.04999 64.4175 3.61046 64.4175 3.17092C64.4175 2.79418 64.4473 2.41744 64.5071 1.9779C64.5668 1.56976 64.7759 1.16163 65.1045 0.816278C65.2837 0.627906 65.5226 0.470929 65.8213 0.313953C66.12 0.156976 66.5083 0.0941856 66.9862 0.0941856H74.3339V3.01395H68.6589C68.4498 3.01395 68.3004 3.01395 68.2407 3.04534C68.181 3.04534 68.1212 3.07674 68.0913 3.10813C67.9719 3.17092 67.9121 3.2965 67.9121 3.42208C67.9121 3.61046 68.0017 3.73604 68.2108 3.83022C68.4199 3.92441 68.629 3.9872 68.8381 4.04999L72.6015 5.11743C72.8405 5.18022 73.1093 5.27441 73.408 5.43138C73.7067 5.55696 73.9456 5.74533 74.1547 5.9651C74.3339 6.15347 74.4534 6.34184 74.5729 6.56161C74.6924 6.78138 74.7521 7.03254 74.8118 7.25231C74.8716 7.50347 74.9014 7.72324 74.9014 7.9744C74.9313 8.19416 74.9313 8.41393 74.9313 8.6337C74.9313 8.97905 74.9014 9.35579 74.8417 9.79532C74.782 10.2035 74.6326 10.6116 74.3937 10.9569C74.2443 11.1767 74.0651 11.3651 73.8859 11.4907C73.7067 11.6163 73.5275 11.7104 73.3184 11.7732C73.1093 11.836 72.9301 11.8674 72.721 11.8674C72.5119 11.8674 72.3327 11.8988 72.1535 11.8988H64.5071V8.91626H64.4772ZM80.248 6.74998H82.5479L81.5323 3.79883C81.5025 3.76743 81.4726 3.70464 81.4726 3.64185C81.4427 3.57906 81.4129 3.54767 81.4129 3.54767C81.383 3.54767 81.3531 3.57906 81.3531 3.64185C81.3233 3.70464 81.2934 3.76743 81.2934 3.79883L80.248 6.74998ZM78.8441 1.41279L74.7222 11.836H78.5156L79.3818 9.41858H83.3842L84.2504 11.836H88.0438L83.9218 1.41279C83.8024 1.09883 83.653 0.847673 83.4439 0.659301C83.2647 0.47093 83.0557 0.313953 82.8466 0.219767C82.6375 0.125581 82.3985 0.0627913 82.1596 0.031396C81.9206 7.18113e-07 81.6518 0 81.383 0C80.935 0 80.5765 0.031395 80.3077 0.0941856C80.0389 0.156976 79.7999 0.251162 79.5909 0.376743C79.4117 0.502325 79.2324 0.659301 79.1428 0.816278C79.0532 1.00465 78.9338 1.19302 78.8441 1.41279ZM100.529 9.85811C100.529 9.9523 100.499 10.1407 100.469 10.3604C100.439 10.5802 100.35 10.8314 100.171 11.0511C100.021 11.2709 99.7822 11.4907 99.4537 11.679C99.1251 11.8674 98.6771 11.9616 98.0797 11.9616C97.8706 11.9616 97.6615 11.9616 97.4525 11.9302C97.2434 11.8988 97.0343 11.8674 96.8252 11.7732C96.6161 11.7104 96.407 11.5849 96.2278 11.4279C96.0187 11.2709 95.8395 11.0511 95.6902 10.8L91.6579 4.83487C91.628 4.77208 91.5683 4.70929 91.5085 4.6465C91.4488 4.58371 91.3891 4.55231 91.3592 4.55231C91.3293 4.55231 91.2995 4.55231 91.2397 4.58371C91.18 4.61511 91.1501 4.70929 91.1501 4.86627V11.8046H88.3723V2.07209C88.3723 1.69535 88.432 1.38139 88.5814 1.09883C88.7307 0.847672 88.9099 0.627905 89.1489 0.470929C89.3878 0.313953 89.6567 0.188372 89.9554 0.125582C90.2541 0.062791 90.5527 0.031396 90.8813 0.031396C91.0306 0.031396 91.2099 0.0313955 91.4189 0.0627908C91.628 0.094186 91.8371 0.125582 92.0462 0.188372C92.2553 0.251163 92.4643 0.376744 92.6734 0.502325C92.8825 0.659301 93.0617 0.847672 93.2409 1.09883L97.2732 7.09533C97.3031 7.15812 97.3628 7.22091 97.4226 7.2837C97.4823 7.34649 97.5122 7.37789 97.6018 7.37789C97.6914 7.37789 97.7511 7.34649 97.7511 7.2837C97.781 7.22091 97.781 7.15812 97.781 7.09533V0.125582H100.559V9.85811H100.529ZM105.129 11.836V3.04534H101.156V0.125582H112.686V3.04534H108.713V11.836H105.129ZM115.195 11.836C114.956 11.836 114.717 11.8046 114.508 11.7732C114.269 11.7418 114.06 11.6162 113.85 11.4279C113.582 11.2081 113.462 10.9883 113.402 10.7372C113.373 10.486 113.343 10.2349 113.343 9.9523V1.91511C113.343 1.69535 113.373 1.47558 113.432 1.22442C113.492 1.00465 113.612 0.784881 113.821 0.565115C114.03 0.376743 114.269 0.251163 114.508 0.188372C114.747 0.125582 114.985 0.0941856 115.165 0.0941856H123.17V2.91976H117.674C117.554 2.91976 117.465 2.91976 117.375 2.95116C117.285 2.98255 117.196 3.01395 117.136 3.07674C117.046 3.13953 116.987 3.26511 116.987 3.35929C116.957 3.48487 116.957 3.57906 116.957 3.64185V4.52092H123.02V7.06394H116.957V8.31975C116.957 8.44533 116.987 8.53951 117.017 8.6023C117.046 8.66509 117.076 8.72788 117.136 8.75928C117.226 8.85347 117.315 8.88486 117.465 8.91626C117.584 8.91626 117.704 8.91626 117.823 8.91626H123.259V11.7732H115.195V11.836ZM135.565 11.836H131.981V7.18952H127.949V11.836H124.364V0.125582H127.949V4.26976H131.981V0.125582H135.565V11.836Z" fill="#24242E"/>
<path fill-rule="evenodd" clip-rule="evenodd" d="M11.332 0C9.63526 5.30066 0 14.165 0 18.5673C0 23.9578 5.06003 28.3001 11.332 28.3301C17.604 28.3001 22.6641 23.9578 22.6641 18.5673C22.6641 14.165 13.0288 5.30066 11.332 0ZM5.72662 18.7769C5.93872 18.5972 6.09021 18.3277 6.09021 17.9983C6.09021 17.4592 5.66602 17.01 5.15093 17.01C4.63583 17.01 4.21164 17.4592 4.21164 17.9983C4.21164 18.5373 4.63583 18.9866 5.15093 18.9866C5.24183 18.9866 5.36302 18.9566 5.45392 18.9267L7.72639 24.5867C5.15093 23.5685 3.06026 21.4722 3.06026 18.5673C3.06026 17.04 7.2719 11.6794 8.27178 10.3917C9.21107 9.19381 10.3019 7.78628 11.332 6.28892C12.3622 7.75634 13.453 9.16386 14.3923 10.3917C15.3922 11.7094 19.6038 17.04 19.6038 18.5673C19.6038 21.4422 17.5434 23.5385 14.9983 24.5567L17.2708 18.9866C17.3314 19.0165 17.4223 19.0165 17.5131 19.0165C18.0282 19.0165 18.4524 18.5673 18.4524 18.0282C18.4524 17.4892 18.0282 17.04 17.5131 17.04C16.9981 17.04 16.5739 17.4892 16.5739 18.0282C16.5739 18.3577 16.7254 18.6571 16.9981 18.8368L12.9076 22.9396L11.5138 17.3694C11.8774 17.2496 12.1501 16.8603 12.1501 16.441C12.1501 15.902 11.7259 15.4528 11.2108 15.4528C10.6957 15.4528 10.2716 15.902 10.2716 16.441C10.2716 16.8603 10.5442 17.2197 10.9078 17.3694L9.54436 22.5503L5.72662 18.7769Z" fill="#24242E"/>
</svg>

<svg width="136" height="29" fill="none" xmlns="http://www.w3.org/2000/svg"><path fill-rule="evenodd" clip-rule="evenodd" d="M36.251 8.069c.03.094.06.157.12.188.03.031.06.063.09.063s.059-.032.089-.063a.484.484 0 0 0 .12-.188L39.267.126h3.853l-3.853 9.952c-.09.251-.21.502-.359.722-.149.22-.328.44-.537.596-.21.189-.478.314-.777.409a3.838 3.838 0 0 1-1.135.157c-.448 0-.836-.063-1.135-.157a2.65 2.65 0 0 1-.776-.409 2.504 2.504 0 0 1-.538-.596 3.223 3.223 0 0 1-.358-.722L29.799.126h3.854l2.598 7.943zm7.199 3.767V.126h3.584v11.71H43.45zm11.35-6.31c.209 0 .448 0 .657-.032.209-.031.388-.094.537-.282.18-.22.3-.566.3-1.005 0-.157-.03-.314-.06-.471a.769.769 0 0 0-.27-.44c-.149-.125-.328-.22-.507-.22-.21-.03-.389-.03-.598-.03h-2a.765.765 0 0 0-.33.062c-.089.063-.149.094-.179.188-.03.063-.06.126-.09.22 0 .063-.029.157-.029.22v1.821H54.8v-.031zm-6.183 6.31V2.323c0-.25.03-.502.09-.816.06-.314.179-.565.358-.785.12-.157.299-.282.538-.408.239-.126.567-.188.925-.188h6.153c.449 0 .867.062 1.285.157.388.094.746.314 1.075.69.269.283.478.691.598 1.193.149.503.208 1.162.208 2.01 0 .188 0 .47-.03.784-.03.314-.06.66-.119 1.037-.06.345-.179.69-.298 1.036-.12.345-.33.596-.538.816-.269.22-.568.408-.956.502a4.197 4.197 0 0 1-1.015.157H52.2v3.39h-3.584v-.062zm15.86-2.92h6.183c.269 0 .448-.031.508-.125.06-.063.12-.157.12-.251 0-.189-.06-.314-.21-.409a8.01 8.01 0 0 0-.478-.188l-4.3-1.256c-.33-.094-.598-.22-.807-.408a3.681 3.681 0 0 1-.478-.502c-.269-.377-.418-.785-.508-1.256-.06-.471-.09-.91-.09-1.35 0-.377.03-.754.09-1.193.06-.408.269-.816.597-1.162.18-.188.419-.345.717-.502.299-.157.687-.22 1.165-.22h7.348v2.92h-5.675c-.21 0-.359 0-.418.031-.06 0-.12.032-.15.063a.348.348 0 0 0-.179.314c0 .188.09.314.299.408.209.094.418.157.627.22l3.764 1.067c.239.063.507.157.806.314.299.126.538.314.747.534.179.188.298.377.418.597.12.22.18.47.239.69.06.251.09.471.09.722.03.22.03.44.03.66 0 .345-.03.722-.09 1.161-.06.409-.21.817-.448 1.162-.15.22-.329.408-.508.534a1.94 1.94 0 0 1-.568.282c-.209.063-.388.094-.597.094-.21 0-.388.032-.568.032h-7.646V8.916h-.03zM80.248 6.75h2.3l-1.016-2.951a.247.247 0 0 1-.06-.157c-.03-.063-.06-.094-.06-.094-.029 0-.059.031-.059.094-.03.063-.06.125-.06.157L80.248 6.75zm-1.404-5.337-4.122 10.423h3.794l.866-2.417h4.002l.866 2.417h3.794L83.922 1.413c-.12-.314-.269-.565-.478-.754a1.975 1.975 0 0 0-.597-.44 2.484 2.484 0 0 0-.687-.188A6.183 6.183 0 0 0 81.383 0c-.448 0-.806.031-1.075.094a2.475 2.475 0 0 0-.717.283c-.18.125-.359.282-.448.44-.09.188-.21.376-.299.596zm21.685 8.445c0 .094-.03.283-.06.502a1.4 1.4 0 0 1-.298.691c-.15.22-.389.44-.717.628-.329.188-.777.283-1.374.283-.21 0-.418 0-.627-.032-.21-.031-.419-.063-.628-.157a1.662 1.662 0 0 1-.597-.345 2.154 2.154 0 0 1-.538-.628l-4.032-5.965a.824.824 0 0 0-.15-.189c-.06-.062-.119-.094-.149-.094s-.06 0-.12.032c-.059.031-.089.125-.089.282v6.939h-2.778V2.072c0-.377.06-.69.21-.973.149-.251.328-.471.567-.628a2.35 2.35 0 0 1 .806-.345c.3-.063.598-.095.926-.095.15 0 .329 0 .538.032.209.031.418.063.627.125.21.063.418.189.627.314.21.157.389.346.568.597l4.032 5.996c.03.063.09.126.15.189.06.062.09.094.179.094.09 0 .15-.032.15-.094.029-.063.029-.126.029-.189V.125h2.778v9.733h-.03zm4.6 1.978v-8.79h-3.973V.125h11.53v2.92h-3.973v8.79h-3.584zm10.066 0c-.239 0-.478-.031-.687-.063-.239-.031-.448-.157-.658-.345-.268-.22-.388-.44-.448-.69-.029-.252-.059-.503-.059-.786V1.915c0-.22.03-.44.089-.69.06-.22.18-.44.389-.66.209-.188.448-.314.687-.377.239-.062.477-.094.657-.094h8.005V2.92h-5.496c-.12 0-.209 0-.299.031a.59.59 0 0 0-.239.126.378.378 0 0 0-.149.282c-.03.126-.03.22-.03.283v.879h6.063v2.543h-6.063V8.32c0 .125.03.22.06.282.029.063.059.126.119.157.09.094.179.126.329.157h5.794v2.857h-8.064v.063zm20.37 0h-3.584V7.19h-4.032v4.646h-3.585V.126h3.585V4.27h4.032V.126h3.584v11.71zM11.332 0C9.635 5.3 0 14.165 0 18.567c0 5.39 5.06 9.733 11.332 9.763 6.272-.03 11.332-4.372 11.332-9.763 0-4.402-9.635-13.266-11.332-18.567zM5.727 18.777c.212-.18.363-.45.363-.779 0-.539-.424-.988-.94-.988-.514 0-.938.45-.938.988 0 .54.424.989.939.989.09 0 .212-.03.303-.06l2.272 5.66c-2.575-1.018-4.666-3.115-4.666-6.02 0-1.527 4.212-6.888 5.212-8.175.94-1.198 2.03-2.606 3.06-4.103 1.03 1.467 2.121 2.875 3.06 4.103 1 1.317 5.212 6.648 5.212 8.175 0 2.875-2.06 4.971-4.606 5.99l2.273-5.57c.06.03.151.03.242.03.515 0 .94-.45.94-.989 0-.539-.425-.988-.94-.988-.515 0-.94.45-.94.988 0 .33.152.63.425.809l-4.09 4.103-1.394-5.57c.363-.12.636-.51.636-.929 0-.539-.424-.988-.94-.988-.514 0-.938.449-.938.988 0 .42.272.779.636.928L9.544 22.55l-3.817-3.773z" fill="#24242E"/></svg>
